X: 17
T: Alunelul de la Orodel
B: incoming
M:2/4
L:1/16
Q: 1/4=120
K:A
V:1 
gaaa af=ge  | =gef^d Te2cA  | gaaa af=ge  | feeg a2 z2 |
^gaba af=ge | feef =g4      | Mf2e2 ^d2e2 | c2E2 A4 ::
cce2 A4     | c2E2 A4       | cce2 A4     | c2E2 A4 ::
c8          | =gfe^d cAc2   | d8          |=gfe^d cAc2 |
(a6 aa)     | =gfe2 e^dc2   | c2e2 ^d2e2  | c2E2 A4 ::
cce2 A4     | c2E2 A4       | cce2 A4     |c2E2 A4     :|
V:2 
A,4 E,4     | A,4 E,4       | A,4 E,4     | A,4 E,4    |
A,4 E,4     | A,4 E,4       | A,4 E,4     | A,4 E,4 ::
A,4 E,4     | A,4 E,4       | A,4 E,4     | A,4 E,4 ::
A,4 E,4     | A,4 E,4       | D,4 A,,4    | A,4 E,4    |
A,4 E,4     | A,4 E,4       | A,4 E,4     | A,4 E,4 ::
A,4 E,4     | A,4 E,4       |\
A,4 E,4     | A,4 E,4       :|
W: from Martin Junghans/Jutta Weber-Karn transcription
W: http://www.folkloretanznoten.de/
W: extracting score using Audiveris OMR engine
% abcbook-tune_id 63cb082fe011bc78cefd0555
% abcbook-tune_composer_id 
% abcbook-boost 0
% abcbook-difficulty 0
% abcbook-tags balkan dances
% abcbook-tablature 
% abcbook-transpose 
% abcbook-tuning 
% abcbook-lastupdated 1674250287865
% abcbook-soundfonts 
% abcbook-repeats 1


